X: 38652
T: Stornton Wake
R: reel
M: 4/4
K: Edorian
|:B z2 c .d2 .B2|AGFE .F2 GF|.E2 .B2 BAGF|Eeed .e4:|
B z2 c .d2 .B2|ed cB .c2 .A2|B z2 c .d2 .B2|.e4 .B4|
B z2 c .d2 .B2|AGFE .F2 GF|.E2 .B2 BAGF|Eeed e4||

